!!!!SEGMENT: Ror0105-Solea_lontana_in_sonno_consolarme
!!!id: Ror0105
!!!AGN: Madrigal
!!!voices: 5
!!!COM: Cipriano de Rore
!!!OTL: Solea lontana in sonno consolarme
**kern	**text	**kern	**text	**kern	**text	**kern	**text	**kern	**text
*part5	*part5	*part4	*part4	*part3	*part3	*part2	*part2	*part1	*part1
*staff5	*staff5	*staff4	*staff4	*staff3	*staff3	*staff2	*staff2	*staff1	*staff1
*I"Bassus	*	*I"Tenor II	*	*I"Tenor I	*	*I"Altus	*	*I"Superius	*
*I'B	*	*I'T. II	*	*I'T. I	*	*I'A	*	*I'S	*
*clefF4	*	*clefGv2	*	*clefGv2	*	*clefGv2	*	*clefG2	*
*k[b-]	*	*k[b-]	*	*k[b-]	*	*k[b-]	*	*k[b-]	*
*M2/1	*	*M2/1	*	*M2/1	*	*M2/1	*	*M2/1	*
*met(C)	*	*met(C)	*	*met(C)	*	*met(C)	*	*met(C)	*
=1	=1	=1	=1	=1	=1	=1	=1	=1	=1
!!section: Solea lontana
!!!OMD: Solea lontana
0r	.	0r	.	2D	So-	0r	.	0r	.
.	.	.	.	2.F	-lea	.	.	.	.
.	.	.	.	4G	lon-	.	.	.	.
.	.	.	.	4A	-ta-	.	.	.	.
.	.	.	.	4A	-na in	.	.	.	.
=2	=2	=2	=2	=2	=2	=2	=2	=2	=2
0r	.	0r	.	2B-y	son-	2G	So-	2r	.
.	.	.	.	4G	-no	2.B-y	-lea	2d	So-
.	.	.	.	2d	con-	.	.	.	.
.	.	.	.	.	.	.	.	2.f	-lea
.	.	.	.	4A	-so-	4c	lon-	.	.
.	.	.	.	2B-y	-lar-	4d	-ta-	.	.
.	.	.	.	.	.	4d	-na in	4g	lon-
=3	=3	=3	=3	=3	=3	=3	=3	=3	=3
0r	.	2D	So-	4A	-me,	1f	son-	2a	-ta-
.	.	.	.	4d	So-	.	.	.	.
.	.	2.F	-lea	4c	-lea	.	.	4a	-na in
.	.	.	.	4A	lon-	.	.	2cc	son-
.	.	.	.	4A	-ta-	2d	-no	.	.
.	.	4G	lon-	4B-y	-na in	.	.	4b-y	-no
.	.	4A	-ta-	2c	son-	4f	con-	4a	con-
.	.	4A	-na in	.	.	4e	-so-	4cc	-so-
=4	=4	=4	=4	=4	=4	=4	=4	=4	=4
2GG	So-	4.B-y	son-	4d	-no	2g	-lar-	2b-y	-lar-
.	.	.	.	2D	con-	.	.	.	.
.	.	8c	.	.	.	.	.	.	.
2.BB-y	-lea	2.d	.	.	.	4f	-me,	2b-y	-me
.	.	.	.	4D	-so-	2f	So-	.	.
.	.	.	.	2G	-lar-	.	.	1r	.
4C	lon-	4G	-no	.	.	4e	-lea	.	.
4D	-ta-	4B-y	con-	4F	-me,	4f	lon-	.	.
4D	-na in	4A	-so-	4F	So-	[4d	-ta-	.	.
=5	=5	=5	=5	=5	=5	=5	=5	=5	=5
2E-X	son-	2G	-lar-	4B-y	-lea	4d]	-na in	0r	.
.	.	.	.	4G	lon-	4c	.	.	.
4C	-no	4G	-me,	4.c	-ta-	2e-X	son-	.	.
2G	con-	4C	in	.	.	.	.	.	.
.	.	.	.	8c	-na in	.	.	.	.
.	.	4G	son-	4B-y	son-	4d	-no	.	.
4F	-so-	4D	-no	4A	-no	2d	con-	.	.
2E-i	-lar-	4G	con-	4B-y	con-	.	.	.	.
.	.	4G	-so-	4G	-so-	4c	-so-	.	.
=6	=6	=6	=6	=6	=6	=6	=6	=6	=6
1D	-me	2A	-lar-	2d	-lar-	4.f	-lar-	4r	.
.	.	.	.	.	.	.	.	4a	Con
.	.	.	.	.	.	8e	.	.	.
.	.	4F#X	-me	2A	-me	8dL	.	4a	quel-
.	.	.	.	.	.	8cJ	.	.	.
.	.	4F#i	Con	.	.	2d	.	4a	-la
4r	.	2G	quel-	2r	.	.	.	2.b-y	dol-
4GG	Con	.	.	.	.	4d	-me	.	.
4GG	quel-	4D	-la	2d	Con	4r	.	.	.
4GG	-la	[4G	dol-	.	.	4B-y	Con	4g	-ce an-
=7	=7	=7	=7	=7	=7	=7	=7	=7	=7
2.D	dol-	4G]	.	2.d	quel-	2A	quel-	4.a	-ge-
.	.	4F#X	-ce an-	.	.	.	.	.	.
.	.	.	.	.	.	.	.	8a	-li-
.	.	4.F#i	-ge-	.	.	2A	-la	4a	-ca
4D	-ce an-	.	.	4d	-la	.	.	4d	sua
.	.	8F#i	-li-	.	.	.	.	.	.
4.C	-ge-	2G	-ca	2.e-X	dol-	4c	dol-	2g	vi-
.	.	.	.	.	.	4c	-ce an-	.	.
8C	-li-	.	.	.	.	.	.	.	.
4C	-ca	4C	sua	.	.	4.c	-ge-	4g	-sta
4FF	sua	[4FnXi	vi-	4c	-ce an-	.	.	4a	Ma-
.	.	.	.	.	.	8c	-li-	.	.
=8	=8	=8	=8	=8	=8	=8	=8	=8	=8
4.BB-y	vi-	4F]	.	4.d	-ge-	4B-y	-ca	2f	-don-
.	.	2D	-sta	.	.	4B-y	sua	.	.
8AA	.	.	.	8d	-li-	.	.	.	.
2GG	.	.	.	4d	-ca	2B-y	vi-	4g	-na,
.	.	4E	Ma-	4G	sua	.	.	4g	Con
4FF	-sta	2F	-don-	4.c	vi-	4A	-sta	4a	quel-
4FF	Ma-	.	.	.	.	4A	Ma-	4a	-la
.	.	.	.	8B-y	.	.	.	.	.
2F	-don-	4F	-na,	8AL	.	2c	-don-	[2a	dol-
.	.	.	.	8GJ	.	.	.	.	.
.	.	4A	Con	[4F	.	.	.	.	.
=9	=9	=9	=9	=9	=9	=9	=9	=9	=9
4D	-na,	4A	quel-	4F]	.	1d	-na,	4a]	.
4D	Con	4A	-la	4F	-sta	.	.	4f	-ce an-
2BB-y	quel-	2.B-y	dol-	4D	Ma-	.	.	4.f	-ge-
.	.	.	.	2d	-don-	.	.	.	.
.	.	.	.	.	.	.	.	8f	-li-
4GG	-la	.	.	.	.	4r	.	4g	-ca
2C	dol-	4G	-ce an-	4c	-na,	4e	Con	4g	sua
.	.	4.A	-ge-	4r	.	4e	quel-	4.cc	vi-
[4AA	-ce an-	.	.	4c	Con	4e	-la	.	.
.	.	8A	-li-	.	.	.	.	8b-y	.
=10	=10	=10	=10	=10	=10	=10	=10	=10	=10
4AA]	.	4A	-ca	4c	quel-	2f	dol-	4a	.
2BB-y	-ge-	4D	sua	4B-y	-la	.	.	8gL	.
.	.	.	.	.	.	.	.	8fJ	.
.	.	2G	vi-	2B-y	dol-	2d	-ce an-	2g	.
4GG	-li-	.	.	.	.	.	.	.	.
2C	-ca	4G	-sta	4G	-ce an-	4.e	-ge-	2g	-sta
.	.	4G	Ma-	4.c	-ge-	.	.	.	.
.	.	.	.	.	.	8e	-li-	.	.
4FF	sua	[2F	-don-	.	.	4f	-ca	4a	Ma-
.	.	.	.	8c	-li-	.	.	.	.
[4BB-y	vi-	.	.	[4B-y	-ca	4d	sua	[4b-y	-don-
=11	=11	=11	=11	=11	=11	=11	=11	=11	=11
8BB-L]	.	2F]	.	4B-]	.	2.d	vi-	8b-L]	.
8CJ	.	.	.	.	.	.	.	8aJ	.
4.D	.	.	.	4B-y	sua	.	.	4.f	.
.	.	2F	-na;	2A	vi-	.	.	.	.
8E	.	.	.	.	.	.	.	8g	.
2F	.	.	.	.	.	4c	-sta	4.a	.
.	.	1r	.	4A	-sta	2c	Ma-	.	.
.	.	.	.	.	.	.	.	8b-yL	.
4F	-sta	.	.	4A	Ma-	.	.	8cc	.
.	.	.	.	.	.	.	.	8aJ	.
2D	Ma-	.	.	4.d	-don-	2f	-don-	8b-yL	.
.	.	.	.	.	.	.	.	8aJ	.
.	.	.	.	.	.	.	.	[4a	.
.	.	.	.	8c	.	.	.	.	.
=12	=12	=12	=12	=12	=12	=12	=12	=12	=12
2G	-don-	2r	.	2B-y	.	1.d	-na;	8aL]	.
.	.	.	.	.	.	.	.	8gJ	.
.	.	.	.	.	.	.	.	2g	.
2D	-na;	4r	.	2A	-na;	.	.	.	.
.	.	4A	hor	.	.	.	.	4f#i	-na;
1r	.	4BnX	mi	4r	.	.	.	4r	.
.	.	4Bni	spa-	4G	hor	.	.	4g	hor
.	.	2c	-ven-	[2A	mi	2r	.	4e	mi
.	.	.	.	.	.	.	.	4e	spa-
=13	=13	=13	=13	=13	=13	=13	=13	=13	=13
2D	hor	2F	-ta	4A]	.	2r	.	2a	-ven-
.	.	.	.	4A	spa-	.	.	.	.
4E	mi	2r	.	1c	-ven-	4r	.	2g	-ta
4E	spa-	.	.	.	.	4G	hor	.	.
2F	-ven-	4r	.	.	.	4A	mi	2r	.
.	.	4F	e	.	.	4A	spa-	.	.
2BB-y	-ta	4D	mi	2d	-ta	[2B-y	-ven-	2f	e
.	.	4D	con-	.	.	.	.	.	.
=14	=14	=14	=14	=14	=14	=14	=14	=14	=14
2r	.	2E-X	-tri-	2r	.	4B-]	.	4g	mi
.	.	.	.	.	.	4c	-ta	4g	con-
2GG	e	2D	-sta,	2G	e	4r	.	2b-y	-tri-
.	.	.	.	.	.	4d	e	.	.
4AA	mi	4r	.	4E	mi	4c	mi	2a	-sta,
4AA	con-	4A	Né	4E	con-	4c	con-	.	.
2D	-tri-	4A	di	2F	-tri-	2A	-tri-	4r	.
.	.	[4d	duol	.	.	.	.	4a	Né
=15	=15	=15	=15	=15	=15	=15	=15	=15	=15
2AA	-sta,	4d]	.	2E	-sta,	4A	-sta,	4a	di
.	.	4c	né	.	.	4e	Né	2a	duol
2D	Né	4A	di	2r	.	4f	di	.	.
.	.	2B-y	te-	.	.	2d	duol	4f	né
4E	di	.	.	2r	.	.	.	4g	di
4F	duol	4A	-ma	.	.	4c	né	4f	te-
4C	né	4G	pos-	4r	.	4c	di	4e	-ma
4D	di	4F	-so ai-	4A	Né	[4f	te-	[4a	pos-
=16	=16	=16	=16	=16	=16	=16	=16	=16	=16
2D	te-	8DL	-tar-	4A	di	4f]	.	4a]	.
.	.	8E	.	.	.	.	.	.	.
.	.	8F	.	2d	duol	4f	-ma	4a	-so ai-
.	.	8GJ	.	.	.	.	.	.	.
4AA	-ma	2A	.	.	.	2e	pos-	2.a	-tar-
4AA	pos-	.	.	4c	né	.	.	.	.
4D	-so ai-	1F	-me,	4A	di	2f	-so ai-	.	.
4.BB-y	-tar-	.	.	2B-y	te-	.	.	4d	-me,
.	.	.	.	.	.	4.d	-tar-	4r	.
8C	.	.	.	.	.	.	.	.	.
4D	.	.	.	4A	-ma	.	.	[4d	Né
.	.	.	.	.	.	8c	.	.	.
=17	=17	=17	=17	=17	=17	=17	=17	=17	=17
4GG	-me,	4r	.	4G	pos-	4B-y	.	4d]	.
2D	Né	4A	Né	4F#X	-so ai-	4A	-me,	4d	di
.	.	4A	di	2F#i	-tar-	4r	.	2a	duol
4D	di	2d	duol	.	.	4A	Né	.	.
4GG	duol	.	.	2G	-me,	4B-y	di	4g	né
4C	né	4c	né	.	.	4G	duol	4e	di
4D	di	4A	di	4r	.	2d	né	2f	te-
[4BB-y	te-	[4B-y	te-	[4D	Né	.	.	.	.
=18	=18	=18	=18	=18	=18	=18	=18	=18	=18
8BB-L]	.	4B-]	.	4D]	.	4d	di	4g	-ma
16AAL	.	.	.	.	.	.	.	.	.
16GGJJ	.	.	.	.	.	.	.	.	.
4D	.	4A	-ma	4D	di	4.d	te-	4a	pos-
4GG	-ma	4G	pos-	2d	duol	.	.	4b-y	-so ai-
.	.	.	.	.	.	8e	.	.	.
2D	pos-	4F	-so ai-	.	.	2f	.	2a	-tar-
.	.	2B-y	-tar-	4d	né	.	.	.	.
4G	-so ai-	.	.	4B-y	di	4e	-ma	4g	.
4.F	.	2A	-me:	4c	te-	4f	pos-	[2a	-me:
.	.	.	.	4A	-ma	4c	-so ai-	.	.
8E	.	.	.	.	.	.	.	.	.
=19	=19	=19	=19	=19	=19	=19	=19	=19	=19
2D	-tar-	4r	.	2.d	pos-	2f	-tar-	2a]	.
.	.	4A	Che	.	.	.	.	.	.
2AA	-me:	4A	spes-	.	.	2e	-me:	4r	.
.	.	4A	-so	4c#X	-so ai-	.	.	4a	Che
2r	.	4G	nel	2d	-tar-	4r	.	4b-y	spes-
.	.	4F#X	suo	.	.	4d	Che	4a	-so
4r	.	2G	vol-	2BnX	-me:	4d	spes-	4g	nel
4G	Che	.	.	.	.	4d	-so	4g	suo
=20	=20	=20	=20	=20	=20	=20	=20	=20	=20
4G	spes-	4C	-to	1r	.	4c	nel	2e	vol-
4G	-so	4G	ve-	.	.	4BnX	suo	.	.
4F	nel	4A	-der	.	.	4.c	vol-	4f	-to
4E	suo	4.c	par-	.	.	.	.	4g	ve-
.	.	.	.	.	.	8Bni	.	.	.
2F	vol-	.	.	4r	.	8AL	.	4a	-der
.	.	8B-y	.	.	.	8FJ	.	.	.
.	.	4A	.	4c	Che	2f	.	2cc	par-
4C	-to	4G	-me,	4c	spes-	.	.	.	.
4C	ve-	4G	Che	4c	-so	4e	-to	4g	-me,
=21	=21	=21	=21	=21	=21	=21	=21	=21	=21
2D	-der	2d	spes-	4B-y	nel	2.f	ve-	4r	.
.	.	.	.	4A	suo	.	.	4f	Che
4.BB-y	par-	4d	-so	2B-y	vol-	.	.	4b-y	spes-
.	.	2d	nel	.	.	4f	-der	4b-y	-so
8C	.	.	.	.	.	.	.	.	.
8DL	.	.	.	4F	-to	4.f	par-	4b-y	nel
8EJ	.	.	.	.	.	.	.	.	.
4F	.	4c	suo	4F	ve-	.	.	4a	suo
.	.	.	.	.	.	8e	.	.	.
2BB-y	-me	4B-y	vol-	4F	-der	2d	.	2b-y	vol-
.	.	4F	-to	[4B-y	par-	.	.	.	.
=22	=22	=22	=22	=22	=22	=22	=22	=22	=22
2E-i	Ve-	2G	ve-	4B-]	.	2B-y	-me	4g	-to
.	.	.	.	8AL	.	.	.	4g	ve-
.	.	.	.	8GJ	.	.	.	.	.
4D	-ra	2A	-der	2d	.	2r	.	4f	-der
4D	pie-	.	.	.	.	.	.	4.f	par-
2BB-y	-tà	2B-y	par-	2d	-me	1f	Ve-	.	.
.	.	.	.	.	.	.	.	8e	.
.	.	.	.	.	.	.	.	4d	.
2F	con	2A	-me	2r	.	.	.	2c	-me
=23	=23	=23	=23	=23	=23	=23	=23	=23	=23
2A	gra-	2r	.	2c	Ve-	4e	-ra	1r	.
.	.	.	.	.	.	4e	pie-	.	.
4G	-ve	2d	Ve-	4B-y	-ra	2g	-tà	.	.
4G	do-	.	.	4B-y	pie-	.	.	.	.
2E	-lor	4c	-ra	2G	-tà	2r	.	2g	Ve-
.	.	4c	pie-	.	.	.	.	.	.
2F	mi-	2A	-tà	2r	.	2c	con	4f	-ra
.	.	.	.	.	.	.	.	4f	pie-
=24	=24	=24	=24	=24	=24	=24	=24	=24	=24
1BB-y	-sta,	2B-y	con	2F	con	1f	gra-	2d	-tà
.	.	2d	gra-	2B-y	gra-	.	.	2r	.
1r	.	4c	-ve	4A	-ve	4f	-ve	2a	con
.	.	4c	do-	4A	do-	4e	do-	.	.
.	.	2A	-lor	2F	-lor	2f	-lor	2cc	gra-
=25	=25	=25	=25	=25	=25	=25	=25	=25	=25
2r	.	1B-y	mi-	1G	mi-	1d	mi-	4b-y	-ve
.	.	.	.	.	.	.	.	4b-y	do-
2GG	con	.	.	.	.	.	.	2g	-lor
1D	gra-	2A	-sta,	2F	-sta,	4d	-sta,	2a	mi-
.	.	.	.	.	.	4d	con	.	.
.	.	4r	.	4r	.	2f	gra-	2a	-sta,
.	.	4A	con	4D	con	.	.	.	.
=26	=26	=26	=26	=26	=26	=26	=26	=26	=26
4C	-ve	1c	gra-	2G	gra-	4e	-ve	1r	.
4C	do-	.	.	.	.	4e	do-	.	.
2AA	-lor	.	.	2.F	-ve	2f	-lor	.	.
1BB-y	mi-	4B-y	-ve	.	.	1d	mi-	1r	.
.	.	4B-y	do-	4F	do-	.	.	.	.
.	.	2G	-lor	2D	-lor	.	.	.	.
=27	=27	=27	=27	=27	=27	=27	=27	=27	=27
1AA	-sta,	2A	mi-	2E	mi-	1c#X	-sta,	2r	.
.	.	2A	-sta,	2E	-sta,	.	.	4r	.
.	.	.	.	.	.	.	.	4a	Et
4r	.	1r	.	4r	.	4r	.	4g	u-
4AA	Et	.	.	4E	Et	4cnXi	Et	4a	-dir
4GG	u-	.	.	4G	u-	4d	u-	2b-y	co-
4GG	-dir	.	.	4G	-dir	4d	-dir	.	.
=28	=28	=28	=28	=28	=28	=28	=28	=28	=28
2D	co-	2r	.	2F#X	co-	1d	co-	2a	-se
2D	-se	2A	Et	2F#i	-se	.	.	4r	.
.	.	.	.	.	.	.	.	4a	on-
2r	.	4G	u-	4r	.	1d	-se	4b-y	-de ’l
.	.	4A	-dir	4FnXi	on-	.	.	4a	cor
2GG	on-	[2B-y	co-	4G	-de ’l	.	.	2g	fe-
.	.	.	.	4G	cor	.	.	.	.
=29	=29	=29	=29	=29	=29	=29	=29	=29	=29
4BB-y	-de ’l	2B-]	.	4.D	fe-	4r	.	4f	-de ac-
4GG	cor	.	.	.	.	2d	on-	4.g	-qui-
.	.	.	.	8E	.	.	.	.	.
4D	fe-	2A	-se	4F	.	.	.	.	.
.	.	.	.	.	.	.	.	8f	.
4D	-de ac-	.	.	4D	-de ac-	4A	-de ’l	4.f	.
2C	-qui-	2r	.	2G	-qui-	4c	cor	.	.
.	.	.	.	.	.	.	.	8e	.
.	.	.	.	.	.	2c	fe-	4e	.
2FF	-sta,	2A	on-	2F	-sta	.	.	[2f	-sta
.	.	.	.	.	.	4c	-de ac-	.	.
=30	=30	=30	=30	=30	=30	=30	=30	=30	=30
2r	.	4B-y	-de l’	4r	.	4d	-qui-	2f]	.
.	.	4A	cor	2F	Che	4c	-sta,	.	.
2C	on-	2G	fe-	.	.	4r	.	2r	.
.	.	.	.	4E	di	4c	on-	.	.
4FF	-de ’l	4A	-de ac-	4F	gio-	4c	-de ’l	2r	.
4C	cor	4.G	-qui-	4E	-ia et	4c	cor	.	.
4BB-y	fe-	.	.	2F	di	[2d	fe-	4r	.
.	.	8F	.	.	.	.	.	.	.
4BB-y	-de ac-	[4F	.	.	.	.	.	[4b-y	Che
=31	=31	=31	=31	=31	=31	=31	=31	=31	=31
2GG	-qui-	8FL]	.	2G	spe-	4d]	.	4b-]	.
.	.	8EJ	.	.	.	.	.	.	.
.	.	4E	.	.	.	8cL	.	4g	di
.	.	.	.	.	.	8B-yJ	.	.	.
2FF	-sta	2F	-sta	4C	-me	8AL	.	2a	gio-
.	.	.	.	.	.	8GJ	.	.	.
.	.	.	.	4C	si	2A	.	.	.
4r	.	1r	.	4D	dis-	.	.	4f	-ia et
2C	Che	.	.	8EL	-ar-	4c	-de ac-	4g	di
.	.	.	.	8FJ	.	.	.	.	.
.	.	.	.	8GL	.	2c	-qui-	2e	spe-
.	.	.	.	8EJ	.	.	.	.	.
4AA	di	.	.	4A	.	.	.	.	.
=32	=32	=32	=32	=32	=32	=32	=32	=32	=32
2BB-y	gio-	2B-y	Che	2D	-me,	2F	-sta	4d	-me
.	.	.	.	.	.	.	.	2f	si
2C	-ia et	4G	di	2r	.	4r	.	.	.
.	.	2A	gio-	.	.	2c	Che	4e	dis-
4AA	di	.	.	2r	.	.	.	2f	-ar-
2BB-y	spe-	2F	-ia et	.	.	4d	di	.	.
.	.	.	.	2B-y	Che	2d	gio-	2d	-me,
8AAL	.	4G	di	.	.	.	.	.	.
8GGJ	.	.	.	.	.	.	.	.	.
=33	=33	=33	=33	=33	=33	=33	=33	=33	=33
4C	.	2E	spe-	4G	di	4c	-ia et	1r	.
4AA	-me	.	.	2A	gio-	4c	di	.	.
4.D	si	4D	-me	.	.	4.f	spe-	.	.
.	.	4A	si	4F	-ia et	.	.	.	.
8C	.	.	.	.	.	8e	.	.	.
4BB-y	.	4D	dis-	4G	di	4d	.	1r	.
4AA	dis-	2F	-ar-	2A	spe-	4c	-me	.	.
2BB-y	-ar-	.	.	.	.	4d	si	.	.
.	.	8EL	.	4G	-me	4d	dis-	.	.
.	.	8DJ	.	.	.	.	.	.	.
=34	=34	=34	=34	=34	=34	=34	=34	=34	=34
2AA	-me,	4E	.	4.A	si	2c	-ar-	4r	.
.	.	4F	-me,	.	.	.	.	2cc	Che
.	.	.	.	8B-y	.	.	.	.	.
2r	.	2F	Che	8cL	.	4A	-me,	.	.
.	.	.	.	8AJ	.	.	.	.	.
.	.	.	.	2d	.	4f	Che	4a	di
4r	.	4G	di	.	.	4d	di	4b-y	gio-
2C	Che	2G	gio-	4c	dis-	2e-X	gio-	2g	-ia e
.	.	.	.	2c	-ar-	.	.	.	.
4AA	di	[4F	-ia et	.	.	8dL	.	4a	di
.	.	.	.	.	.	8cJ	.	.	.
=35	=35	=35	=35	=35	=35	=35	=35	=35	=35
2BB-y	gio-	4F]	.	4B-y	-me,	2d	.	2f	spe-
.	.	4D	di	4d	Che	.	.	.	.
4BB-y	-ia et	2G	spe-	4d	di	4B-y	-ia et	4d	-me
4GG	di	.	.	2d	gio-	4B-y	di	2g	si
2D	spe-	4D	-me	.	.	2A	spe-	.	.
.	.	4.d	si	4A	-a et	.	.	4f#i	di-
2GG	-me	.	.	4B-y	di	2G	-me	2g	-sar-
.	.	8cL	.	.	.	.	.	.	.
.	.	8B-y	.	[4d	spe-	.	.	.	.
.	.	8AJ	.	.	.	.	.	.	.
=36	=36	=36	=36	=36	=36	=36	=36	=36	=36
2.GG	si	4G	.	8dL]	.	2.B-y	si	[0dl	-me.
.	.	.	.	8c	.	.	.	.	.
.	.	4D	di-	8B-y	.	.	.	.	.
.	.	.	.	8AJ	.	.	.	.	.
.	.	1.D	-sar-	4G	.	.	.	.	.
4FF#X	di-	.	.	4A	-me	4A	di-	.	.
1GG	-sar-	.	.	4B-y	si	1G	-sar-	.	.
.	.	.	.	4B-y	di-	.	.	.	.
.	.	.	.	2B-y	-sar-	.	.	.	.
=37	=37	=37	=37	=37	=37	=37	=37	=37	=37
0Dl	-me.	0Dl	-me.	0Al	-me.	0F#Xl	-me.	0d]	.
=38||	=38||	=38||	=38||	=38||	=38||	=38||	=38||	=38||	=38||
*M2/1	*	*M2/1	*	*M2/1	*	*M2/1	*	*M2/1	*
*met(C)	*	*met(C)	*	*met(C)	*	*met(C)	*	*met(C)	*
!!section: Non ti sovendi
!!!OMD: Non ti sovendi
1r	.	2D	Non	2A	Non	2d	Non	2f#X	Non
.	.	4G	ti	4B-y	ti	4d	ti	4g	ti
.	.	4G	so-	4B-y	so-	4e	so-	4g	so-
1r	.	2D	-ven	4A	-ven	2f	-ven	2.a	-ven
.	.	.	.	4A	di	.	.	.	.
.	.	4r	.	4d	quell’	4f	di	.	.
.	.	4D	di	[4d	ul-	[4f	quell’	4a	di
=39	=39	=39	=39	=39	=39	=39	=39	=39	=39
1r	.	4D	quell’	8dL]	.	4f]	.	4a	quell’
.	.	.	.	8dJ	-ti-	.	.	.	.
.	.	4.G	ul-	4BnX	-ma	4.d	ul-	4.g	ul-
.	.	.	.	2Bni	se-	.	.	.	.
.	.	8G	-ti-	.	.	8d	-ti-	8g	-ti-
.	.	4G	-ma	.	.	4e	-ma	4g	-ma
1r	.	2F	se-	4c	-ra,	2f	se-	2a	se-
.	.	.	.	4c	Dic’	.	.	.	.
.	.	4D	-ra,	2d	el-	4f	-ra,	4a	-ra,
.	.	4B-y	Dic’	.	.	4f	Dic’	[4d	Dic’
=40	=40	=40	=40	=40	=40	=40	=40	=40	=40
1r	.	2B-y	el-	4G	-la,	2d	el-	8dL]	.
.	.	.	.	.	.	.	.	8e	.
.	.	.	.	4d	Ch’i	.	.	8f	.
.	.	.	.	.	.	.	.	8gJ	.
.	.	4A	-la,	4c	la-	4e	-la,	4a	.
.	.	2G	Ch’i	4d	-sciai	2g	Ch’i	2b-y	el-
1r	.	.	.	2d	gli oc-	.	.	.	.
.	.	4D	la-	.	.	4f	la-	4a	-la,
.	.	4G	-sciai	2B-y	-chi	4d	-sciai	4r	.
.	.	4G	gli oc-	.	.	4d	gli oc-	4g	ch’i
=41	=41	=41	=41	=41	=41	=41	=41	=41	=41
1r	.	4F	-chi	4A	tuoi	4d	-chi	4a	la-
.	.	4D	tuoi	4.d	mol-	4f	tuoi	2a	-sciai
.	.	2A	mol-	.	.	2e	mol-	.	.
.	.	.	.	8c#i	.	.	.	.	.
.	.	.	.	4c#i	.	.	.	4a	gli oc-
1r	.	4B-y	-li,	4d	-li,	2d	-li,	4f	-chi
.	.	4F	Non	4A	Non	.	.	4f	tuoi
.	.	4G	ti	4BnX	ti	2r	.	2d	mol-
.	.	4G	so-	4Bni	so-	.	.	.	.
=42	=42	=42	=42	=42	=42	=42	=42	=42	=42
2GG	Non	4D	-ven,	4d	-ven,	2BnX	Non	4d	-li,
.	.	4D	Non	4G	Non	.	.	4g	Non
4C	ti	4E-X	ti	4G	ti	4c	ti	4g	ti
4C	so-	4E-i	so-	4c	so-	4c	so-	4a	so-
2GG	-ven	4D	-ven	2B-y	-ven	2.d	-ven	4b-y	-ven
.	.	4D	di	.	.	.	.	4b-y	di
4r	.	4G	quell’	4B-y	di	.	.	4b-y	quell’
4GG	di	[4G	l’ul-	[4B-y	quell’	4d	di	[4g	ul-
=43	=43	=43	=43	=43	=43	=43	=43	=43	=43
4GG	quell’	8GL]	.	4B-]	.	4d	quell’	8gL]	.
.	.	8GJ	-ti-	.	.	.	.	8gJ	-ti-
4.C	ul-	4E	-ma	4.G	ul-	4.c	ul-	4g	-ma
.	.	2E	se-	.	.	.	.	2cc	se-
8C	-ti-	.	.	8G	-ti-	8c	-ti-	.	.
4C	-ma	.	.	4A	-ma	4c	-ma	.	.
2BB-y	se-	4F	-ra,	2B-y	se-	2d	se-	4f	-ra,
.	.	4D	Dic’	.	.	.	.	4f	Dic’
4GG	-ra,	2G	el-	4B-y	-ra,	4d	-ra,	2g	el-
4E-X	Dic’	.	.	4B-y	Dic’	[4G	Dic’	.	.
=44	=44	=44	=44	=44	=44	=44	=44	=44	=44
2E-X	el-	4C	-la,	2G	el-	8GL]	.	2g	-la,
.	.	.	.	.	.	8A	.	.	.
.	.	4G	Ch’i	.	.	8B-y	.	.	.
.	.	.	.	.	.	8cJ	.	.	.
4D	-la,	4F#X	la-	4A	-la,	4d	.	4r	.
2C	Ch’i	4G	-sciai	2c	Ch’i	2e-X	el-	4g	ch’i
.	.	2G	gli oc-	.	.	.	.	4c	la-
4GG	la-	.	.	4B-y	la-	4d	-la,	2g	-sciai
4C	-sciai	4E	-chi	4G	-sciai	4r	.	.	.
4AA	gli oc-	4FnXi	tuoi	4A	gli oc-	4c	Ch’i	[4f	gli oc-
=45	=45	=45	=45	=45	=45	=45	=45	=45	=45
4BB-y	-chi	2.D	mol-	4F	-chi	4d	la-	4f]	.
4GG	tuoi	.	.	4B-y	tuoi	2d	-sciai	2g	-chi
2D	mol-	.	.	2A	mol-	.	.	.	.
.	.	4D	-li,	.	.	4d	gli oc-	4f	tuoi
2GG	-li,	4r	.	2G	-li	4d	-chi	2b-y	mol-
.	.	4d	Et	.	.	4B-y	tuoi	.	.
2r	.	4c	sfor-	2r	.	2e-i	mol-	2g	-li
.	.	[4c	-za-	.	.	.	.	.	.
=46	=46	=46	=46	=46	=46	=46	=46	=46	=46
1r	.	4c]	.	2G	Et	2d	-li	2r	.
.	.	4BnX	-ta	.	.	.	.	.	.
.	.	2c	dal	4F	sfor-	2r	.	2.a	Et
.	.	.	.	2F	-za-	.	.	.	.
4r	.	2c	tem-	.	.	1r	.	.	.
4G	Et	.	.	4E	-ta	.	.	4g	sfor-
4F	sfor-	2A	-po	4F	dal	.	.	2cc	-za-
[4F	-za-	.	.	[4c	tem-	.	.	.	.
=47	=47	=47	=47	=47	=47	=47	=47	=47	=47
4F]	.	4c	me	4c]	.	1r	.	4a	-ta
4E	-ta	4c	n’an-	4G	-po	.	.	2cc	dal
4F	dal	2.d	-da-	4A	me	.	.	.	.
2G	tem-	.	.	4B-y	n’an-	.	.	2b-y	tem-
.	.	.	.	2G	-da-	4r	.	.	.
4C	-po	4c	-i?	.	.	4e	Et	8aL	.
.	.	.	.	.	.	.	.	8gJ	.
4D	me	2r	.	2F	-i,	4d	sfor-	4b-y	.
4D	n’an-	.	.	.	.	[4d	-za-	4a	-po,
=48	=48	=48	=48	=48	=48	=48	=48	=48	=48
2E-X	-da-	2G	Et	1r	.	4d]	.	4r	.
.	.	.	.	.	.	4c	-ta	4g	Et
4D	-i?	4A	sfor-	.	.	4d	dal	4f	sfor-
2BB-y	Et	4B-y	-za-	.	.	2d	tem-	2f	-za-
.	.	4F	-ta	2r	.	.	.	.	.
4C	sfor-	4c	dal	.	.	4G	-po	4e	-ta
8FFL	-za-	[2c	tem-	2F	Et	4A	me	4f	dal
8GG	.	.	.	.	.	.	.	.	.
8AA	.	.	.	.	.	4A	n’an-	[4cc	tem-
8BB-yJ	.	.	.	.	.	.	.	.	.
=49	=49	=49	=49	=49	=49	=49	=49	=49	=49
8CL	.	4c]	.	4E	sfor-	2G	-da-	4cc]	.
8DJ	.	.	.	.	.	.	.	.	.
4E-X	.	4c	-po	4G	-za-	.	.	4g	-po
4D	-ta	4A	me	4F	-ta	2d	-i?	4a	me
2GG	dal	4G	n’an-	4D	dal	.	.	4b-y	n’an-
.	.	2d	-da-	4B-y	tem-	2r	.	4.g	-da-
2G	tem-	.	.	4B-y	-po	.	.	.	.
.	.	.	.	.	.	.	.	8a	.
.	.	2d	-i?	4G	me	4r	.	4b-y	.
4F	-po	.	.	4A	n’an-	4d	I’	[4a	.
=50	=50	=50	=50	=50	=50	=50	=50	=50	=50
4G	me	4r	.	2B-y	-da-	4d	non	8aL]	.
.	.	.	.	.	.	.	.	8gJ	.
4G	n’an-	4G	I’	.	.	4e	tel	4g	.
1D	-da-	4F	non	1A	-i?	2f	po-	1.a	-i?
.	.	4D	tel	.	.	.	.	.	.
.	.	2F	po-	.	.	4d	-tei	.	.
.	.	.	.	.	.	2d	dir	.	.
2AA	-i?	2E	-tei	4r	.	.	.	.	.
.	.	.	.	4A	I’	4c#X	all’	.	.
=51	=51	=51	=51	=51	=51	=51	=51	=51	=51
4r	.	4G	dir	4B-y	non	4d	hor,	1r	.
4C	I’	4G	all’	4G	tel	4e	I’	.	.
4BB-y	non	2D	hor,	2B-y	po-	4f	non	.	.
4GG	tel	.	.	.	.	4g	tel	.	.
2D	po-	4r	.	2A	-tei	4f	po-	2r	.
.	.	4F	né	.	.	4d	-tei	.	.
2C	-tei	[2G	vol-	4c	dir	[2e-X	dir	4r	.
.	.	.	.	4c	all’	.	.	4cc	I’
=52	=52	=52	=52	=52	=52	=52	=52	=52	=52
4E-X	dir	2G]	.	4G	hor,	4e-]	.	4b-y	non
4E-i	all’	.	.	4B-y	né	4e-X	all’	4g	tel
2BB-y	hor,	2F	-li,	2B-y	vol-	4d	hor,	2.b-y	po-
.	.	.	.	.	.	4d	né	.	.
2r	.	4r	.	2F	-li,	2d	vol-	.	.
.	.	4D	né	.	.	.	.	4a	-tei
4r	.	2E-X	vol-	4r	.	4B-y	-li,	4g	dir
4GG	né	.	.	4B-y	né	4G	né	4g	all’
=53	=53	=53	=53	=53	=53	=53	=53	=53	=53
2BB-y	vol-	2D	-li;	2B-y	vol-	2d	vol-	4f	hor,
.	.	.	.	.	.	.	.	4f	né
2FF	-li;	4r	.	1A	-li;	4c	-li,	1a	vol-
.	.	2F	Hor	.	.	4c	né	.	.
4r	.	.	.	.	.	1c	vol-	.	.
2F	Hor	4F	tel	.	.	.	.	.	.
.	.	2C	di-	2r	.	.	.	2g	-li;
4E	tel	.	.	.	.	.	.	.	.
=54	=54	=54	=54	=54	=54	=54	=54	=54	=54
2F	di-	4D	-co	1r	.	1A	-li;	4r	.
.	.	4D	per	.	.	.	.	2f	Hor
4D	-co	4.F	co-	.	.	.	.	.	.
4D	per	.	.	.	.	.	.	4f	tel
.	.	8G	.	.	.	.	.	.	.
4F	co-	4A	.	1r	.	1r	.	2c	di-
4C	-sa ex-	4G	-sa ex-	.	.	.	.	.	.
4G	-per-	4.B-y	-per-	.	.	.	.	[2d	-co
4G	-ta et	.	.	.	.	.	.	.	.
.	.	8A	.	.	.	.	.	.	.
=55	=55	=55	=55	=55	=55	=55	=55	=55	=55
2G	ve-	8B-yL	.	4r	.	1r	.	4d]	.
.	.	8cJ	.	.	.	.	.	.	.
.	.	2d	.	2B-y	Hor	.	.	4d	per
4D	-ra,	.	.	.	.	.	.	4.f	co-
2D	Hor	4d	-ta et	4A	tel	.	.	.	.
.	.	.	.	.	.	.	.	8g	-sa ex-
.	.	4.d	ve-	2F	di-	2r	.	4a	-per-
4D	tel	.	.	.	.	.	.	4b-y	-ta et
.	.	8c	.	.	.	.	.	.	.
4.E-X	di-	8B-yL	.	2G	-co,	4r	.	[2g	ve-
.	.	8A	.	.	.	.	.	.	.
.	.	8G	.	.	.	[4c	Hor	.	.
8D	.	8FJ	.	.	.	.	.	.	.
=56	=56	=56	=56	=56	=56	=56	=56	=56	=56
4C	.	4E	.	1r	.	4c]	.	4g]	.
4FF	-co	4.F	.	.	.	4c	tel	4a	.
2GG	per	.	.	.	.	2G	di-	2b-y	.
.	.	8E	.	.	.	.	.	.	.
.	.	4E	.	.	.	.	.	.	.
4.D	co-	4F	-ra,	4r	.	4A	-co	1a	-ra,
.	.	2A	Hor	2F	Hor	4d	per	.	.
8E	.	.	.	.	.	.	.	.	.
8FL	.	.	.	.	.	4.c	co-	.	.
8GJ	.	.	.	.	.	.	.	.	.
[4A	.	4A	tel	4F	tel	.	.	.	.
.	.	.	.	.	.	8d	.	.	.
=57	=57	=57	=57	=57	=57	=57	=57	=57	=57
4A]	.	2c	di-	2C	di-	4e	.	2r	.
4G	-sa ex-	.	.	.	.	4e	-sa ex-	.	.
4B-y	-per-	4F	-co	2D	-co	2.f	-per-	4r	.
4A	-ta et	4F	per	.	.	.	.	2a	Hor
2A	ve-	4.F	co-	4D	per	.	.	.	.
.	.	.	.	4.F	co-	4c	-ta et	4a	tel
.	.	8G	.	.	.	.	.	.	.
2D	-ra,	4A	.	.	.	2d	ve-	[2f	di-
.	.	.	.	8G	.	.	.	.	.
.	.	4D	-sa ex-	4A	.	.	.	.	.
=58	=58	=58	=58	=58	=58	=58	=58	=58	=58
4r	.	2F	-per-	4A	-sa ex-	4c	-ra,	2f]	.
2BB-y	Hor	.	.	2B-y	-per-	2d	Hor	.	.
.	.	4F	-ta et	.	.	.	.	2f	-co
4BB-y	tel	2F	ve-	4B-y	-ta et	4d	tel	.	.
2FF	di-	.	.	2A	ve-	2c	di-	2r	.
.	.	4F	-ra,	.	.	.	.	.	.
4GG	-co	4r	.	4D	-ra,	2B-y	-co	4r	.
4GG	per	[4B-y	Hor	[4D	per	.	.	4g	per
=59	=59	=59	=59	=59	=59	=59	=59	=59	=59
4.BB-y	co-	4B-]	.	4D]	.	4r	.	4f	co-
.	.	4B-y	tel	2F	co-	4d	per	4b-y	-sa ex-
8C	.	.	.	.	.	.	.	.	.
2D	.	2F	di-	.	.	4d	co-	4.a	-per-
.	.	.	.	4D	-sa ex-	4f	-sa ex-	.	.
.	.	.	.	.	.	.	.	8b-y	-ta et
4E-X	-sa ex-	4G	-co	4.C	-per-	2e-X	-per-	2cc	ve-
2C	-per-	4G	per	.	.	.	.	.	.
.	.	.	.	8D	.	.	.	.	.
.	.	4G	co-	4E	.	4c	-ta et	4g	.
4BB-y	-ta et	4D	-sa ex-	4F	-ta et	[4d	ve-	[4b-y	.
=60	=60	=60	=60	=60	=60	=60	=60	=60	=60
2GG	ve-	4B-y	-per-	2G	ve-	4d]	.	8b-L]	.
.	.	.	.	.	.	.	.	8aJ	.
.	.	4B-y	-ta et	.	.	4d	-ra:	4.g	.
2D	-ra:	2A	ve-	4D	-ra:	4r	.	.	.
.	.	.	.	.	.	.	.	8f#i	.
.	.	.	.	4A	Non	2d	Non	4f#i	.
4r	.	2G	-ra:	4B-y	spe-	.	.	[1g	-ra:
2G	Non	.	.	2d	-rar	4B-y	spe-	.	.
.	.	2r	.	.	.	2e-i	-rar	.	.
4C	spe-	.	.	[4c	di	.	.	.	.
=61	=61	=61	=61	=61	=61	=61	=61	=61	=61
2G	-rar	4r	.	4c]	.	2d	di	2g]	.
.	.	4G	Non	4BnXi	ve-	.	.	.	.
4F	di	4A	spe-	4c	-der-	4f	ve-	2r	.
4E	ve-	4c	-rar,	4G	-mi in	2g	-der-	.	.
2G	-der-	4r	.	4B-y	ter-	.	.	2.d	Non
.	.	4G	Non	4B-y	-ra	4g	-mi in	.	.
4D	-mi in	4A	spe-	2A	ma-	4f	ter-	.	.
[4C	ter-	[4c	-rar	.	.	4e	-ra	[4e	spe-
=62	=62	=62	=62	=62	=62	=62	=62	=62	=62
4C]	.	4c]	.	2G	-i,	2g	ma-	4e]	.
4E-X	-ra	2B-y	di	.	.	.	.	2g	-rar
2D	ma-	.	.	4r	.	2d	-i,	.	.
.	.	4A	ve-	4d	Non	.	.	4f	di
4C	-i,	2c	-der-	4G	spe-	2r	.	4e	ve-
2C	Non	.	.	2e-X	-rar	.	.	2g	-der-
.	.	4G	-mi in	.	.	4r	.	.	.
4GG	spe-	4B-y	ter-	4d	di	[4G	Non	4g	-mi in
=63	=63	=63	=63	=63	=63	=63	=63	=63	=63
4BB-y	-rar	4B-y	-ra	4d	ve-	4G]	.	4d	ter-
4FF	di	2A	ma-	2c	-der-	4A	spe-	4f	-ra
4AA	ve-	.	.	.	.	4c	-rar	4.e	ma-
2C	-der-	4G	-i,	4c	-mi in	2c	di	.	.
.	.	.	.	.	.	.	.	8f	.
.	.	4r	.	4e-i	ter-	.	.	2g	.
4GG	-mi in	2G	Non	4d	-ra	4BnXi	ve-	.	.
4C	ter-	.	.	2e-i	ma-	4c	-der-	2g	-i,
4C	-ra	4C	spe-	.	.	4G	-mi in	.	.
=64	=64	=64	=64	=64	=64	=64	=64	=64	=64
2GG	ma-	4G	-rar	4d	-i,	4B-y	ter-	2r	.
.	.	2G	di	2d	Non	4B-y	-ra	.	.
2D	-i,	.	.	.	.	2A	ma-	4r	.
.	.	4F#i	ve-	4d	spe-	.	.	[4d	Non
1r	.	4G	-der-	4B-y	-rar	4G	-i,	4d]	.
.	.	4C	-mi in	4G	di	4c	in	4e	spe-
.	.	4E-X	ter-	4G	ve-	4B-y	ter-	4g	-rar
.	.	4E-i	-ra	[4B-y	-der-	4G	-ra	[4g	di
=65	=65	=65	=65	=65	=65	=65	=65	=65	=65
4r	.	2D	ma-	4B-]	.	2d	ma-	4g]	.
4D	Non	.	.	4A	-mi in	.	.	4f#i	ve-
4E	spe-	4C	-i,	2c	ter-	2G	-i,	4g	-der-
2G	-rar	2C	Non	.	.	.	.	4e	-mi in
.	.	.	.	2c	-ra	2r	.	4e	ter-
2F	di	4F	spe-	.	.	.	.	4a	-ra
.	.	4C	-rar	4.c	ma-	4r	.	2g	ma-
4E	ve-	4C	di	.	.	4G	Non	.	.
.	.	.	.	8B-y	.	.	.	.	.
=66	=66	=66	=66	=66	=66	=66	=66	=66	=66
4F	-der-	4D	ve-	2A	.	4d	spe-	2f	-i,
4FF	-mi in	2F	-der-	.	.	2c	-rar	.	.
4C	ter-	.	.	2G	-i,	.	.	4r	.
4C	-ra	4E	-mi in	.	.	2c	di	4g	Non
2AA	ma-	4.E	ter-	4r	.	.	.	4a	spe-
.	.	.	.	4A	Non	4A	ve-	2cc	-rar
.	.	8F	.	.	.	.	.	.	.
2GG	-i,	4.G	.	4B-y	spe-	4.d	-der-	.	.
.	.	.	.	[4d	-rar	.	.	[4b-y	di
.	.	16FLL	.	.	.	8e	.	.	.
.	.	16EJJ	.	.	.	.	.	.	.
=67	=67	=67	=67	=67	=67	=67	=67	=67	=67
1r	.	4D	.	4d]	.	2f	.	4b-]	.
.	.	4F	-ra	2c	di	.	.	4a	ve-
.	.	4G	ma-	.	.	2d	-mi in	4b-y	-der-
.	.	4G	-i,	4BnXi	ve-	.	.	4g	-mi in
1r	.	4r	.	4c	-der-	4e	ter-	4g	ter-
.	.	4A	Non	4F	-mi in	4f	-ra	4cc	-ra
.	.	4B-y	spe-	[2G	ter-	4.d	ma-	2b-y	ma-
.	.	[4d	-rar	.	.	.	.	.	.
.	.	.	.	.	.	8c	.	.	.
=68	=68	=68	=68	=68	=68	=68	=68	=68	=68
2r	.	4d]	.	4G]	.	4B-y	.	2g	-i,
.	.	2c	di	4E-X	-ra	4G	-i,	.	.
2GG	Non	.	.	2D	ma-	4r	.	4r	.
.	.	4BnXi	ve-	.	.	4d	Non	2g	in
4C	spe-	2c	-der-	4C	-i,	4e-X	spe-	.	.
2C	-rar	.	.	4.G	Non	2e-i	-rar	4cc	ter-
.	.	4G	-mi in	.	.	.	.	4cc	-ra
.	.	.	.	8G	spe-	.	.	.	.
[4GG	di	[4B-y	ter-	4G	-rar	4d	di	[4b-y	ma-
=69	=69	=69	=69	=69	=69	=69	=69	=69	=69
4GG]	.	4B-]	.	4G	di	4d	ve-	8b-L]	.
.	.	.	.	.	.	.	.	8aJ	.
4GG	ve-	4B-y	-ra	4G	ve-	2d	-der-	4.g	.
4D	-der-	2A	ma-	4A	-der-	.	.	.	.
.	.	.	.	.	.	.	.	8f#i	.
4D	-mi in	.	.	4D	-mi in	4d	-mi in	4f#i	.
4GG	ter-	[1Gl	-i.	4D	ter-	4BnX	ter-	[1gl	-i.
4GG	-ra	.	.	4D	-ra	4Bni	-ra	.	.
2C	ma-	.	.	2E-X	ma-	2c	ma-	.	.
=70	=70	=70	=70	=70	=70	=70	=70	=70	=70
0GGl	-i.	0G]	.	0Dl	-i.	0BnXil	-i.	0g]	.
==	==	==	==	==	==	==	==	==	==
*-	*-	*-	*-	*-	*-	*-	*-	*-	*-
!!!system-decoration: s1,s2,s3,s4,s5
!!!RDF**kern: i = editorial accidental
!!!RDF**kern: l = terminal long
!!!ENC: Janosch Umbreit
!!!END: 2026/03/27
!!!EED: Benjamin Ory
!!!EEV: 2026/03/30
!!!YEC: Copyright 2026 Jessie Ann Owens and Scott Metcalfe, All Rights Reserved
!!!ONB: Translated from MusicXML on 2026/03/30
!!!verovio: header encoded
!!!header-left: Edited by Jessie Ann Owens and Scott Metcalfe (2026)\n
!!!header-right:
!!!header-center: